svg/fluentui-system-icons/ic_fluent_chat_dismiss_20_filled.svg

<svg width="20" height="20" viewBox="0 0 20 20" fill="none" xmlns="http://www.w3.org/2000/svg">
<path d="M18 10C18 5.58172 14.4183 2 10 2C5.58172 2 2 5.58172 2 10L2.00738 10.3463L2.03275 10.7283C2.12433 11.7422 2.4066 12.7186 2.86169 13.6153L2.925 13.735L2.01493 17.3787L2.00114 17.4624L2.00131 17.5438C2.02622 17.8369 2.31127 18.0625 2.62109 17.9851L6.266 17.075L6.38669 17.1393C7.49591 17.7018 8.72679 18 10 18C14.4183 18 18 14.4183 18 10ZM7.85355 7.14645L10 9.29289L12.1464 7.14645C12.3417 6.95118 12.6583 6.95118 12.8536 7.14645C13.0488 7.34171 13.0488 7.65829 12.8536 7.85355L10.7071 10L12.8536 12.1464C13.0488 12.3417 13.0488 12.6583 12.8536 12.8536C12.6583 13.0488 12.3417 13.0488 12.1464 12.8536L10 10.7071L7.85355 12.8536C7.65829 13.0488 7.34171 13.0488 7.14645 12.8536C6.95118 12.6583 6.95118 12.3417 7.14645 12.1464L9.29289 10L7.14645 7.85355C6.95118 7.65829 6.95118 7.34171 7.14645 7.14645C7.34171 6.95118 7.65829 6.95118 7.85355 7.14645Z" fill="#212121"/>
</svg>

<svg xmlns="http://www.w3.org/2000/svg" width="20" height="20"><path d="M18 10a8 8 0 1 0-16 0l.007.346.026.382a7.95 7.95 0 0 0 .829 2.887l.063.12-.91 3.644-.014.083v.082a.5.5 0 0 0 .62.441l3.645-.91.12.064A8 8 0 0 0 18 10ZM7.854 7.146 10 9.293l2.146-2.147a.5.5 0 0 1 .708.708L10.707 10l2.147 2.146a.5.5 0 0 1-.708.708L10 10.707l-2.146 2.147a.5.5 0 0 1-.708-.708L9.293 10 7.146 7.854a.5.5 0 1 1 .708-.708Z"/></svg>
